X:1
T:There Shall Be Showers of Blessing
T:There Shall Be Showers of Blessing
T:James McGranahan
T:Daniel Webster Whittle, 1883
T:Public Domain Courtesy of the Cyber Hymnal™
T:Public Domain Courtesy of the Cyber Hymnal™
C:James McGranahan
Z:Public Domain
Z:Courtesy of the Cyber Hymnal™
%%score ( 1 2 ) ( 3 4 )
L:1/8
Q:1/4=105
M:6/8
K:Bb
V:1 treble 
V:2 treble 
V:3 bass 
V:4 bass 
V:1
 [DF][DF][DF] [EF][EG][EA] | [DB]3 [DF]3 | [FA][FA][FA] [EA][EB][Ec] | [DB]6 | %4
w: 1.~There shall be show- ers of|bless- ing:|This is the prom- ise of|love;|
w: 2.~There shall be show- ers of|bless- ing,|Pre- cious re- viv- ing a-|gain;|
w: 3.~There shall be show- ers of|bless- ing;|Send them up- on us, O|Lord;|
w: 4.~There shall be show- ers of|bless- ing:|Oh, that to- day they might|fall,|
w: 5.~There shall be show- ers of|bless- ing,|If we but trust and o-|bey;|
 [EG][EG][EG] [GB][FA][EG] | [DF]3 [FB]3 | [GB][GB][GB] [GB][^FA][GB] | [Ac]6 || %8
w: There shall be sea- sons re-|fresh- ing,|Sent from the Sav- ior a-|bove.|
w: O- ver the hills and the|val- leys,|Sound of a- bun- dance of|rain.|
w: Grant to us now a re-|fresh- ing,|Come, and now hon- or Thy|Word.|
w: Now as to God we’re con-|fess- ing,|Now as on Jes- us we|call!|
w: There shall be sea- sons re-|fresh- ing,|If we let God have His|way.|
"^Refrain" d3- [=Fd][=E^c][_Fd] | [DB]3 [DF]3 | [Fd][Ec][DB] [FB][EA][DB] | [Fc]6 | %12
w: ||||
w: ||||
w: Show- ers of bless-|* ing,|Show- ers of bless- ing we|need:|
w: ||||
w: ||||
 [Fd][Fd][Fd] [Ec][EB][EG] | [DF]3 B3 | [EA][EA][EA] [EA][EB][Ec] | [DB]6 |] %16
w: ||||
w: ||||
w: Mer- cy drops round us are|fall- ing,|But for the show- ers we|plead.|
w: ||||
w: ||||
V:2
 x6 | x6 | x6 | x6 | x6 | x6 | x6 | x6 || B _F F x3 | x6 | x6 | x6 | x6 | x3 (D2 F) | x6 | x6 |] %16
V:3
 [B,,B,][B,,B,][B,,B,] [F,A,][F,B,][F,C] | [B,,B,]3 (B,2 D) | [F,C][F,C][F,C] [F,C][F,G,][F,A,] | %3
 [B,,B,]6 | [E,B,][E,B,][E,B,] [E,B,][E,B,][E,B,] | [B,,B,]3 [D,B,]3 | %6
 [G,D][G,D][G,D] [D,D][D,D][G,D] | [F,E]6 || (DB,[B,,B,] [B,,B,])[B,,B,][B,,B,] | %9
 [B,,F,]3 [B,,B,]3 | [B,,B,][B,,F,][B,,F,] [D,F,][C,F,][B,,F,] | [F,A,]6 | %12
 [B,,_A,][B,,A,][B,,A,] [E,G,][E,G,][E,B,] | [B,,B,]3 (F,B,D) | [F,C][F,C][F,C] [F,C][F,G,][F,A,] | %15
 [B,,F,B,]6 |] %16
V:4
 x6 | x3 B,,3 | x6 | x6 | x6 | x6 | x6 | x6 || B,,2 x4 | x6 | x6 | x6 | x6 | x3 B,,3 | x6 | x6 |] %16

